X:64
T:Bull at the Wagon
C:Traditional
N:Transcribed by Kim Davis
R:bluegrass
L:1/8
Q:1/4=260
M:4/4
K:A
AB |: "A"ce cB ce cB | ce ag fe cA | "E"Bc BA Bc BA | Bc fg fe cB | 
|"A"ce cB ce cB | AA ce ad cA | "E"[e3B3]e ag fe |1 c"E"A B2 "A"A2 B2 :|2 c"E"A BA "A"A2 A2 |]
|: "A"Bc ee ag fb | "E"ge fg fe cA | fg fe cB AF | [e2B2] F[eB] z3A | 
|"A"zc ee ag fb | "E"ge fg fe cA | fg fe cB AG |1 "A"A2 G[AA] z2 E2 :|2 "A"A2 G[AA] z2 EA, |]
|: A,A, A,A, A,2 A,C | "E"B,B, B,B, B,2 B,2 | EF GA Bc df | ed ce ed c2 |
| "A"[AEA,][AEA,] [AEA,][AEA,] [A2E2A,2] A,C | "E"[EB,][EB,] [EB,][EB,] [E2B,2] B,2 | EF GA Bc dB |1 c"E"A BA "A"A2 A,2 :|2 "E"cA BA "A"A4 | 

